X:632
T: Hongqi chabian dabieshan
N: C2154
O: China,Hubei Macheng
S: I, 404, 2)]
R: Xiaodiao]
M: 2/4
L: 1/16
K: C
A4d2e2 | d2d4e2 | c2ded2A2 | G2E2G4 |
G4c4 | d4e4 | d2A2G4 |
c2dec2A2 | c2dec2A2 | E2EGAcG2 | A2E2G4 |
c3AG2c2 | G2AcA2E2 | G2AcAGE2 | D8

@@@ Tune index: 7187
